icons/snapchat.svg

<svg xmlns="http://www.w3.org/2000/svg" width="24" height="24" viewBox="0 0 24 24">
  <path d="M12,20.45 C11.065734,20.4224939 10.1705983,20.0686854 9.47,19.45 C9.06911748,19.1127601 8.59745736,18.8700944 8.09,18.74 C7.38928819,18.696673 6.68595123,18.750517 6,18.9 C5.86285508,18.9183145 5.73539068,18.8260127 5.71,18.69 C5.53,17.94 5.48,17.69 5.36,17.69 C4,17.51 3.19,17.2 3,16.83 C2.81,16.46 3,16.51 3.15,16.49 C4.27252969,16.2947776 5.2856061,15.6975957 6,14.81 C6.4030819,14.3601861 6.73981866,13.8550809 7,13.31 C7.14994819,13.0638506 7.1863968,12.764972 7.1,12.49 C6.93,12.08 6.35,11.9 5.72,11.69 C5.38,11.56 4.83,11.28 4.9,10.89 C4.97,10.5 5.33,10.41 5.85,10.45 C6.1325838,10.5944076 6.44295351,10.6762634 6.76,10.69 C6.95039325,10.7042185 7.13927915,10.6471963 7.29,10.53 C7.07277006,9.1418228 7.13395832,7.72429497 7.47,6.36 C8.27117465,4.59200608 10.0601288,3.48230163 12,3.55 C13.9529893,3.47160513 15.7577132,4.58768442 16.56,6.37 C16.8952481,7.73440857 16.9564295,9.15177801 16.74,10.54 C16.8876509,10.6556735 17.0728615,10.7126614 17.26,10.7 C17.5770465,10.6862634 17.8874162,10.6044076 18.17,10.46 C18.69,10.46 19.07,10.61 19.17,10.9 C19.27,11.19 18.69,11.57 18.35,11.7 C17.72,11.91 17.14,12.09 16.97,12.5 C16.8836032,12.774972 16.9200518,13.0738506 17.07,13.32 C17.3300619,13.8651488 17.6668095,14.3702703 18.07,14.82 C18.7769435,15.7014066 19.7783205,16.2979716 20.89,16.5 C21,16.5 21.08,16.61 21.04,16.84 C21,17.07 20.04,17.51 18.74,17.72 C18.62,17.72 18.56,17.94 18.39,18.72 C18.3646093,18.8560127 18.2371449,18.9483145 18.1,18.93 C17.4019434,18.794465 16.6883352,18.7574382 15.98,18.82 C15.47242,18.9497714 15.000691,19.1924725 14.6,19.53 C13.8994017,20.1486854 13.004266,20.5024939 12.07,20.53 L12,20.45 Z"/>
</svg>

<svg xmlns="http://www.w3.org/2000/svg" viewBox="0 0 24 24">
  <path d="M12 20.45a4 4 0 0 1-2.53-1c-.4-.34-.87-.58-1.38-.71-.7-.04-1.4.01-2.09.16a.26.26 0 0 1-.29-.21c-.18-.75-.23-1-.35-1C4 17.51 3.19 17.2 3 16.83c-.19-.37 0-.32.15-.34 1.12-.2 2.14-.8 2.85-1.68.4-.45.74-.95 1-1.5a1 1 0 0 0 .1-.82c-.17-.41-.75-.59-1.38-.8-.34-.13-.89-.41-.82-.8.07-.39.43-.48.95-.44.28.14.6.23.91.24.19.01.38-.04.53-.16-.22-1.39-.16-2.8.18-4.17A4.79 4.79 0 0 1 12 3.55a4.79 4.79 0 0 1 4.56 2.82c.34 1.36.4 2.78.18 4.17.15.12.33.17.52.16.32-.01.63-.1.91-.24.52 0 .9.15 1 .44.1.29-.48.67-.82.8-.63.21-1.21.39-1.38.8a1 1 0 0 0 .1.82c.26.55.6 1.05 1 1.5.7.88 1.7 1.48 2.82 1.68.11 0 .19.11.15.34-.04.23-1 .67-2.3.88-.12 0-.18.22-.35 1a.26.26 0 0 1-.29.21 7.61 7.61 0 0 0-2.12-.11c-.5.13-.98.37-1.38.71a4 4 0 0 1-2.53 1l-.07-.08z"/>
</svg>
